X:96
T:Brosely Assembly THO4.96
M:C|
L:1/8
Z:vmp. Peter Dunk 2010/11.from a transcription by Fynn Titford-Mock 2007
B:Thompson's Compleat Collection of 200 Favourite Country Dances Volume IV.
Q:1/2=80
K:C
c2(Bc/d/) c2G2|AcBd c2G2|cGEG A2 dB|egfe {e2}d4::\
g2 (fe) d2F2|f2 (ed) e2c2|fedc Aagf|edcB c4:|
